boxicons/svg/regular/bx-calendar-star.svg

<svg xmlns="http://www.w3.org/2000/svg" width="24" height="24" viewBox="0 0 24 24"><path d="m9.981 14.811-.467 2.726 2.449-1.287 2.449 1.287-.468-2.726 1.982-1.932-2.738-.398L11.963 10l-1.225 2.481L8 12.879z"/><path d="M19 4h-2V2h-2v2H9V2H7v2H5c-1.103 0-2 .897-2 2v14c0 1.103.897 2 2 2h14c1.103 0 2-.897 2-2V6c0-1.103-.897-2-2-2zm.002 16H5V8h14l.002 12z"/></svg>

<svg xmlns="http://www.w3.org/2000/svg" width="24" height="24" viewBox="0 0 24 24"><path d="M9.981 14.811L9.514 17.537 11.963 16.25 14.412 17.537 13.944 14.811 15.926 12.879 13.188 12.481 11.963 10 10.738 12.481 8 12.879z"/><path d="M19,4h-2V2h-2v2H9V2H7v2H5C3.897,4,3,4.897,3,6v2v12c0,1.103,0.897,2,2,2h14c1.103,0,2-0.897,2-2V8V6 C21,4.897,20.103,4,19,4z M19.002,20H5V8h14L19.002,20z"/></svg>
